!!!SOCIAL_FUNCTION:	love songs
!!!PDT:	1918

Specific Region: Dakotas, Minnesota, Montana, Nebraska
!!!REG: Dakotas and Montana
!!!LING_GROUP: Siouan
!!!LANG: Tone
!!!OTL@ENG: Love Song (a)
!!!ONM: No. 233
**kern
*Imale
*clefF4
*k[f#c#g#d#]
*M2/4
*MM66
16c#
=1
8c#
16c#
16c#
8c#
16c#
[16c#
=2
4c#]
8.c#
16B#
=3
8.c#
16B#
12B
12B
12G#
=4
4..G#
16G#
=5
8G#
16G#
16G#
8G#
16G#
(16G#
=6
4G#)
8.G#
16F#
=7
8.G#
16F#
12F#
12F#
12E
=8
2E
=9
4C#
12G#
12G#
12G#
=10
8.G#
16E
8.E
16C#
=11||
*M3/4
12C#
12E
12C#
2C#
=12
4C#
2r
==
*-
!!!CNT: Native American -- Sioux
!!!MRD: 1911/07//-1914///
!!!OCL: Frances Densmore
!!!YOR1: Teton Sioux Music, Bulletin 61,
!!!YOR2: Bureau of American Ethnology, Smithsonian Institution
!!!PPR: Government Printing Office
!!!PPP: Washington, D.C.
!!!PDT: 1918///
!!!ENC: Craig Stuart Sapp
!!!END: 2002/03/25/
!!!EEV: 2002/03/31/
!!!AGN: Love Song
!!!MPN@@SIO: Shung'ka-lu'zahang
!!!MPN@ENG: Swift Dog
!!!TXO: Teton Sioux
!!!MLC: Standing Rock Reservation, South Dakota, United States of America
!!!ARL: 45.9/-100.7#
!!!catalog: Catalogue No. 590
!!!PPG: 511
!!!EFL: 238/245
!!!VTS: 1828626123
